packages/assets/static/images/icons/trash.svg

<svg width="24" height="24" viewBox="0 0 24 24" xmlns="http://www.w3.org/2000/svg">
<path d="M20.25 4.6875H16.875V3.5625C16.875 2.86631 16.5984 2.19863 16.1062 1.70634C15.6139 1.21406 14.9462 0.9375 14.25 0.9375H9.75C9.05381 0.9375 8.38613 1.21406 7.89384 1.70634C7.40156 2.19863 7.125 2.86631 7.125 3.5625V4.6875H3.75C3.45163 4.6875 3.16548 4.80603 2.9545 5.017C2.74353 5.22798 2.625 5.51413 2.625 5.8125C2.625 6.11087 2.74353 6.39702 2.9545 6.608C3.16548 6.81897 3.45163 6.9375 3.75 6.9375H4.125V19.6875C4.125 20.1848 4.32254 20.6617 4.67417 21.0133C5.02581 21.365 5.50272 21.5625 6 21.5625H18C18.4973 21.5625 18.9742 21.365 19.3258 21.0133C19.6775 20.6617 19.875 20.1848 19.875 19.6875V6.9375H20.25C20.5484 6.9375 20.8345 6.81897 21.0455 6.608C21.2565 6.39702 21.375 6.11087 21.375 5.8125C21.375 5.51413 21.2565 5.22798 21.0455 5.017C20.8345 4.80603 20.5484 4.6875 20.25 4.6875ZM9.375 3.5625C9.375 3.46304 9.41451 3.36766 9.48483 3.29734C9.55516 3.22701 9.65054 3.1875 9.75 3.1875H14.25C14.3495 3.1875 14.4448 3.22701 14.5152 3.29734C14.5855 3.36766 14.625 3.46304 14.625 3.5625V4.6875H9.375V3.5625ZM17.625 19.3125H6.375V6.9375H17.625V19.3125ZM10.875 9.9375V15.9375C10.875 16.2359 10.7565 16.522 10.5455 16.733C10.3345 16.944 10.0484 17.0625 9.75 17.0625C9.45163 17.0625 9.16548 16.944 8.9545 16.733C8.74353 16.522 8.625 16.2359 8.625 15.9375V9.9375C8.625 9.63913 8.74353 9.35298 8.9545 9.142C9.16548 8.93103 9.45163 8.8125 9.75 8.8125C10.0484 8.8125 10.3345 8.93103 10.5455 9.142C10.7565 9.35298 10.875 9.63913 10.875 9.9375ZM15.375 9.9375V15.9375C15.375 16.2359 15.2565 16.522 15.0455 16.733C14.8345 16.944 14.5484 17.0625 14.25 17.0625C13.9516 17.0625 13.6655 16.944 13.4545 16.733C13.2435 16.522 13.125 16.2359 13.125 15.9375V9.9375C13.125 9.63913 13.2435 9.35298 13.4545 9.142C13.6655 8.93103 13.9516 8.8125 14.25 8.8125C14.5484 8.8125 14.8345 8.93103 15.0455 9.142C15.2565 9.35298 15.375 9.63913 15.375 9.9375Z"/>
</svg>

<svg viewBox="0 0 24 24" xmlns="http://www.w3.org/2000/svg" aria-hidden="true" fill="currentColor" height="24px" width="24px"><path d="M20.25 4.688h-3.375V3.563A2.625 2.625 0 0 0 14.25.938h-4.5a2.625 2.625 0 0 0-2.625 2.625v1.124H3.75a1.125 1.125 0 0 0 0 2.25h.375v12.75A1.875 1.875 0 0 0 6 21.563h12a1.875 1.875 0 0 0 1.875-1.875V6.938h.375a1.125 1.125 0 0 0 0-2.25M9.375 3.563a.375.375 0 0 1 .375-.376h4.5a.375.375 0 0 1 .375.376v1.124h-5.25zm8.25 15.75H6.375V6.938h11.25zm-6.75-9.375v6a1.125 1.125 0 1 1-2.25 0v-6a1.125 1.125 0 0 1 2.25 0m4.5 0v6a1.125 1.125 0 1 1-2.25 0v-6a1.125 1.125 0 1 1 2.25 0"/></svg>
